X: 1596
T: Rast Getirip Fend ile Seyretti
C: Dede Efendi
O: Turkey
F: http://compmusic.upf.edu/node/140
N: rast--kar-i_natik--yuruksemai--rast_getirub--dede_efendi
N: makam= rast
N: form= kar-i_natik
N: usul= yuruksemai = 6/8
M: 6/8
L: 1/16
K: C _1/4B ^f  
Q: 1/4=84
%%MIDI tuningsystem comma53
G8 G4A2B2 G8  | A8 B4G4 d8  | B8 G4A4 A2c2B2A2  | \
w:  Rast  ge ti *  rüb   |  fend_ i le  sey  |  ret di  Hü mâ  | 
G8 D4E2F2 G8  | 
w:  yı   SAZ  | 
G8 G4A2B2 G8  | A8 B4G4 d8  | B8 G4A4 A2c2B2A2  | \
w:  Rast  ge ti *  rüb   |  fend_ i le  sey  |  ret di  Hü mâ  | 
G12B2c2 d8  | d8 d4d4 e8  | 
w:  yı   SAZ  |  Düş dü  o  dem   | 
d4e4 d4c4 B8  | A8 G4A4 B8  | A4G4 F4E4 D8  | \
w:  ha *  tı ra  bir   |  bes te  Re hâ  |  vî    | 
d8 d4d4 e8  | d4e4 d4c4 B8  | 
w:  Düş dü  o  dem   |  ha *  tı ra  bir   | 
A8 D4D4 B4A2G2  | G12^c4 d8  | d6e2 =f2e2d2^c2 d6z2  | \
w:  bes te  Re hâ  |  vî   SAZ  |  Şû *  le  *  ge *  rek   | 
d8 d4d4 d3^c_7/8BAB2  | 
w:  nağ me_ i  Nik  | 
^c8 d4e2=f2 e2d4c2  | d3^c_7/8B2A2 G4c4 d6z2  | \
w:  rî ze  gi *  der  |  ken    | 
d6e2 =f2e2d2^c2 d6z2  | 
w:  Şû *  le  *  ge *  rek   | 
d8 d4d4 d3^c_7/8BAB2  | ^c8 d4e2=f2 e2d4c2  | \
w:  nağ me_ i  Nik  |  rî ze  gi *  der  | 
d3^c_7/8B8A2G2 G6z2  | 
w:  ken    | 
d8 d4d4 g8  | d4e4 d4c4 B8  | A8 G4A4 B6AG  | \
w:  Var dı  gö nül   |  Pen *  cü gâ ha   |  et di  ka ra  | 
G4A4 =B4^c4 d6z2  | 
w:  rı    | 
d8 d4d4 g8  | d4e4 d4c4 B8  | A8 G4A4 B6AG  | \
w:  Var dı  gö nül   |  Pen *  cü gâ ha   |  et di  ka ra  | 
G12e2^9/8f2 g8  | g2^9/8f2e4 f4g4 g8  | 
w:  rı   SAZ  |  An *  *  da  du rup   | 
g8 a4a2g2 g2^9/8f2g2f2  | g2^9/8f2e4 f4g4 a8  | \
w:  ey le di  *  Mâ  |  hu *  *  ru  te mâ  | 
a4g4 f4e4 d8  | d4^c4 d4e4 d4e4  | 
w:  şa   |  yâr   | 
^9/8f4e4 f4g4 a6z2  | g4c'4 c'2=b2b2a2 g2^9/8fef2g2  | \
w:   |  yâ *  ri  *  te *  mâ  | 
^9/8f4g16z4  | d8 d4d4 d6z2  | 
w:  şa    |  Düm  de  re  lel   | 
d4e4 e2d2c2_2/4B2 c4d4  | =B4^c4 d4c4 d8  | \
w:  lâ  *  i *  le  *  gös  |  ter *  di  Ne vâ  | 
c4_2/4B4 c4d4 ^c4d4  | e4d4 e4^3/4f2g2 f3ed4  | 
w:  yı   |   | 
e2=f2e2f2 e2d2d4 e2f2e2d2  | ^c4d16z4  | \
w:  ah  *  *  *  *  *  Ne vâ  |  yı    | 
d8 d4d4 d4a4  | a2g4=f2 f2e2e2d2 e2d2c2_2/4B2  | 
w:  Düm  de  re  lel   |  lâ  *  *  i *  le  *  gös  | 
c6_2/4B2 d4c2B2 B2A2{c}B2A2  | A12G4 A6z2  | \
w:  ter *  di  Ne *  vâ  |  yı   SAZ  | 
G8 A4A4 A8  | A4_2/4B4 c4B2A2 G6z2  | 
w:  Şevk_ i le  Uş  |  şâ *  ka  va *  rıp   | 
c4_2/4B2A2 d4c2B2 B3AG2A2  | G4A4 A2c2_2/4B2A2 G2^3/4F2E2D2  | \
w:  bu  *  *  dil_ i  *  Mec  |  nun    | 
G8 A4A4 A8  | 
w:  Şevk_ i le  Uş  | 
A4_2/4B4 c4B2A2 G6z2  | c4_2/4B2A2 d4c2B2 B3AG2A2  | \
w:  şâ *  ka  va *  rıp   |  bu  *  *  dil_ i  *  Mec  | 
G4A8e2g2 =f6z2  | 
w:  nun   *  SAZ  | 
=f8 f4f4 {g}f2_2/4e4d2  | d2_3/4e2d2e2 g2f2e2d2 d2c4_2/4B2  | \
w:  Ey le di  *  tan  |  bur_ *  *  *  i *  le  *  bir   | 
c2_2/4B2c2d2 e2d2c2B2 B2A6  | 
w:  nağ *  *  *  me  *  Be *  yâ  | 
=f8 {g}f2e2e2d2 edc_2/4BA4  | a6g2 g2=f2f2e2 e2f2_2/4e2d2  | \
w:  tî    |  Ey *  le *  di  *  tan  | 
d2_3/4e2d2e2 g2f2e2d2 {e}d2c4B2  | 
w:  bur_ *  *  *  i *  le  *  *  bir   | 
c2_2/4B2c2d2 e2d2c2B2 B2A2{c}B2A2  | \
w:  nağ *  *  *  me  *  Be *  yâ  | 
A12^c4 d6z2  | d6e2 =f2e2d2^c2 d8  | 
w:  tî   SAZ  |  Son *  ra  *  Ni *  şâ  | 
d6e2 =f2e2d2^c2 d6z2  | G8 d4d4 d2^c=Bc2d2  | \
w:  bu *  ra  *  ka *  dem   |  bas tı  o  per  | 
^c4d8d2c=B B6z2  | 
w:  de    | 
d4_e4 =f4d4 e8  | c4d4 c4_B2A2 B3AG4  | \
w:  Semt_ *  i  Ni hâ  |  vend *  den_ a *  lıp   | 
A2_B2A2B2 d2c2B2A2 A2G2{A}G2F2  | 
w:  ol  *  *  *  meh_ *  i  tâ  | 
G4A4 _B4c4 d6z2  | d4_e4 =f4d4 e8  | \
w:  bı    |  Semt_ *  i  Ni hâ  | 
c4d4 c4_B2A2 B3AG4  | A2_B2A2B2 d2c2B2A2 A2G2{A}G2F2  | 
w:  vend *  den_ a *  lıp   |  ol  *  *  *  meh_ *  i  tâ  | 
G12d4 e6z2  | d6e2 e4e4 e2g2^3/4f2e2  | \
w:  bı   SAZ  |  Bu  *  ge ce  âh   | 
e2d4c2 c2=B2B2A2 B2A2G2^3/4F2  | 
w:  ü  *  *  fi *  ga *  nım   | 
G4^3/4F2E2 A4G2F2 F3ED2E2  | D4E8_2/4B4 c6z2  | \
w:  çık *  *  tı  Nü *  hüft  |  den   *  SAZ  | 
c8 c4c4 c6_3/4d2  | _3/4d4{e}d2c2 c4{d}c2_2/4B2 B6z2  | 
w:  Vakd_ i  Sa bâ  |  ya  *  *  *  va *  rı *  cak   | 
c4_3/4d4 d2e2d2c2 c_2/4BA2B2c2  | \
w:  sar *  dı  *  me *  yâ  | 
_2/4B4c12 c2B2A2G2  | c8 c4c4 c6_3/4d2  | 
w:  nı   *  SAZ  |  Vakd_ i  Sa bâ  | 
_3/4d4{e}d2c2 c4c2_2/4B2 B6z2  | c4_3/4d4 d2e2d2c2 c2_2/4B4A2  | \
w:  ya  *  *  *  va rı *  cak   |  sar *  dı  *  me *  yâ  | 
A12_2/4B4 c6z2  | 
w:  nı   SAZ  | 
c8 _3/4d4e4 =f4_7/8a4  | g4{_7/8a}g2=f2 f2e2e2_3/4d2 d2e2d2c2  | \
w:  Et di  gö nül   |  ça *  *  *  re  *  ek *  nûn   | 
c4_3/4d4 d2c2c2d2 c2_2/4BAB2c2  | 
w:  Çar *  gâh  *  o *  kun  | 
_2/4B4c16z4  | A8 A4A4 _7/8B4^c2B2  | \
w:  du    |  Al dı  e le   | 
A8 ^c2_7/8B2B2A2 A4^G4  | A8 ^G4A4 _7/8B2A2{c}B2A2  | 
w:  nâ yı  *  he *  man   |  tut du  Dü gâ  | 
^G4A8d4 e6z2  | d4c4 d4e4 e8  | d4c4 d4e4 ^3/4f6z2  | \
w:  hı   *  SAZ  |  Say *  dı  Hü sey  |  nî *  de  ta mam   | 
d8 a4g2^3/4f2 f2e2^1/4f2e2  | 
w:  nağ me yi  *  bir   | 
e8 e2d2c2_2/4B2 A6z2  | d4c4 d4e4 e8  | \
w:  bir   SAZ  |  Say *  dı  Hü sey  | 
d4c4 d4e4 ^3/4f6z2  | d8 a4g2^3/4f2 f2e2^1/4f2e2  | 
w:  nî *  de  ta mam   |  nağ me yi  *  bir   | 
e12d4 e6z2  | e8 ^d4e4 a8  | e4=f4 e4d4 e6z2  | \
w:  bir   SAZ  |  Ey le yi  cek   |  sâ *  zı  ic râ   | 
c8 _2/4B4A4 B2c2B2A2  | 
w:  dev ri  Hi sâ  | 
A4_2/4B4 c4d4 e6z2  | e8 ^d4e4 a8  | \
w:  rı    |  Ey le yi  cek   | 
e4=f4 e4d4 e6z2  | c8 _2/4B4A4 B2c2B2A2  | 
w:  sâ *  zı  ic râ   |  dev ri  Hi sâ  | 
G4A8g4 a6z2  | g6a2 a4a4 a2c'2_2/4b2a2  | \
w:  rı   *  SAZ  |  Ol *  du  Mu hay  | 
{_2/4b}a2g4=f2 f2e2e2d2 e2d2c2_2/4B2  | 
w:  *  yer  *  *  o  *  gü *  zel   | 
c4_2/4B2A2 d4c2B2 B2A2{c}B2A2  | G4A8g4 a6z2  | \
w:  baş *  *  la dı  *  cev  |  re   *  SAZ  | 
g6a2 a4a4 a2c'2_2/4b2a2  | 
w:  Ol *  du  Mu hay  | 
{_2/4b}a2g4=f2 f2e2e2d2 e2d2c2_2/4B2  | \
w:  *  yer  *  *  o  *  gü *  zel   | 
c4_2/4B2A2 d4c2B2 B2A2{c}B2A2  | 
w:  baş *  *  la dı  *  cev  | 
G4A8=B4 c6z2  | c4=B4 c4d4 e6d2  | d2=f2e2d2 d2c2c2=B2 c3BA4  | 
w:  re   *  SAZ  |  Bû se lik  i çin   |  ey *  *  *  le *  yi *  cek   | 
c4=B4 A4^G2A2 B2c2B2A2  | A4=B4 c4d4 e6z2  | \
w:  giz *  li  ni *  yâ  |  zı    | 
c4=B4 c4d4 e6d2  | 
w:  Bû se lik  i çin   | 
d2=f2e2d2 d2c2c2=B2 c3BA4  | c4=B4 A4^G2A2 B2c2B2A2  | \
w:  ey *  *  *  le *  yi *  cek   |  giz *  li  ni *  yâ  | 
^G4A8^c4 d6z2  | 
w:  zı    | 
d8 d4d4 d2^c2d2c2  | ^c8 d4c2_7/8B2 A8  | \
w:  Kû yi  Hi câ  |  za  va rı *  cak   | 
^c8 d4{e}d2c2 _7/8B3AG4  | e4=f4 e4d2^c2 {e}d8  | 
w:  pâ yi *  ne  *  düş  |  düm    | 
d8 d4d4 d2^c2{e}d2c2  | ^c8 d4c2_7/8B2 A8  | \
w:  Kû yi  Hi câ  |  za  va rı *  cak   | 
^c8 d4{e}d2c2 c2_7/8B4A2  | A12^g4 a6z2  | 
w:  pâ yi *  ne  *  düş  |  düm   SAZ  | 
a8 a4a4 ^g4a4  | =b4a4 ^g4=f4 e6d2  | \
w:  Et di  o  Şeh  |  nâz  *  i le  bir   | 
^c8 c4d4 c2_7/8B4A2  | A12^g4 a6z2  | 
w:  giz li  ni gâ  |  hı   SAZ  | 
a8 a4a4 ^g4a4  | =b4a4 ^g4=f4 e6d2  | \
w:  Et di  o  Şeh  |  nâz  *  i le  bir   | 
^c8 c4d4 c2_7/8B4A2  | A12^e4 f8  | d4^e4 f4g2f2 f8  | 
w:  giz li  ni gâ  |  hı   SAZ  |  Ra ha tül_ er *  vâh  | 
d4d4 f4e2d2 d2c2B2A2  | A6B2 c4B2A2 A2G2G2F2  | \
w:  la  kıl dı  ba *  na   |  mâ *  nen di  *  iz  | 
F12^e4 f6z2  | 
w:  zet   SAZ  | 
d4^e4 f4g2f2 f8  | d4d4 f4e2d2 d2c2B2A2  | \
w:  Ra ha tül_ er *  vâh  |  la  kıl dı  ba *  na   | 
A6B2 c4B2A2 A2G2G2F2  | 
w:  mâ *  nen di  *  iz  | 
F12_2/4B4 c6z2  | c8 c4c4 e6_2/4d2  | \
w:  zet   SAZ  |  Bir  ker re  koy  | 
_2/4d6c2 c4c2_2/4B2 B2c2B2A2  | A8 G4B4 A2G4F2  | 
w:  ver *  me di  *  ol   |  Bes te ni gâ  | 
F4G4 A4_2/4B2_2/4d2 d2c4B2  | c8 c4c4 e6_2/4d2  | \
w:  rı    |  Bir  ker re  koy  | 
_2/4d6c2 c4c2_2/4B2 B2c2B2A2  | 
w:  ver *  me di  *  ol   | 
A8 G4B4 A2G4F2  | F12G4 A6z2  | G8 A4A4 A4_2/4B4  | \
w:  Bes te ni gâ  |  rı   SAZ  |  Şevk_ i  I rak  | 
c4_2/4B4 A4{B}A2G2 F4d4  | 
w:  la  *  ve *  ri *  cek   | 
{e}_7/8d2c4_2/4B2 A4_1/4B4 A2G4F2  | \
w:  *  nağ *  *  me ye  rev  | 
F4G4 A4G4 A6z2  | G8 A4A4 A4_2/4B4  | \
w:  nâk    |  Şevk_ i  I rak  | 
c4_2/4B4 A4{B}A2G2 F4d4  | 
w:  la  *  ve *  ri *  cek   | 
{e}_7/8d2c4_2/4B2 A4_1/4B4 A2G4F2  | \
w:  *  nağ *  *  me ye  rev  | 
F12^e4 f8  | f8 f4f4 f8  | a4g4 f4^e2g2 f3ed4  | 
w:  nâk   SAZ  |  Evc  i le  et  |  di  *  *  gö *  nül   | 
d4^e8d4 a2g2{a}g2f2  | f8 f3^ed2e2 f6z2  | \
w:  ta mam  ma ka  |  mı    | 
e4^3/4f4 g4a4 a2g2=f2e2  | 
w:  Evc  *  i le  et  | 
e2d2d2c2 c2B2B2d2 c4B2A2  | A2B2c4 B2A2A2B2 A2G2{A}G2F2  | 
w:  di  *  *  *  *  *  gö *  nül   |  ta *  mam  *  *  ma *  ka  | 
F16-F4z4  | z12  | d2c2 e2d6  | G2F2 A2G4z2  | \
w:  mı    |  |  Hey  *  *  hey   |  hey  *  *  hey   | 
d2c2 e2d6  | G2F2 A2G4z2  | 
w:  hey  *  *  hey   |  yâr  *  *  yâr   | 
G2G4G2 G4  | G4 e2d6  | G2A4A2 A4  | A4 B2G6  | \
w:  ye  lel  le  lel   |  lel  li  dost    |  Ye  lel  le  lel   |  lel  li  Rast   | 
d6d2 c2d2  | e2d2 c2B2 A2G2  | 
w:  yâ  lâ   |  yâ  *  *  lâ   | 
A2A2 G2A2 B2AG  | G2A2 B2c2 d4  | d6d2 c2d2  | \
w:  ta mam  *  ma ka  |  mı    |  Tâ nâ   | 
e2d2 c2B2 A2G2  | 
w:  tâ *  *  nâ   | 
A2A2 G2A2 B2AG  | G6z6  | d2c2 e2d6  | G2F2 A2G4z2  | \
w:  ta mam  *  ma ka *  mı   |   |  Hey  *  *  hey   |  hey  *  *  hey   | 
d2c2 e2d6  | 
w:  hey  *  *  hey   | 
G2F2 A2G4z2  | G2G4G2 G4  | G4 e2d6  | G2A4A2 A4  | \
w:  yâr  *  *  yâr   |  ye  lel  le  lel   |  lel  li  dost    |  Ye  lel  le  lel   | 
A4 B2G6  | d6d2 c2d2  | 
w:  lel  li  Rast   |  yâ  lâ   | 
e2d2 c2B2 A2G2  | A2A2 G2A2 B2AG  | G2A2 B2c2 d4  | \
w:  yâ  *  *  lâ   |  ta mam  *  ma ka  |  mı    | 
d6d2 c2d2  | 
w:  Tâ nâ   | 
e2d2 c2B2 A2G2  | A2A2 G2A2 B2AG  | G6z6  | |


